X: 13176
T: First Of Spring, The
R: hornpipe
M: 4/4
K: Gmajor
Bc|:dg ~g2 ecAF|G2 GF G2 G=F|Ec ~c2 DB ~B2|(3ABA (3GFE D2 Bc|
dg ~g2 ecAF|G2 GF G2 G=F|Ec ~c2 AGFA|G2 GF G2:|
(3 CB,A,|:G,B,DG G,CEG|(3 G,B,D (3 GBd gdBG|Ec ~c2 DB ~B2|(3ABA (3GFE (3DED (3 CB,A,|
G,B,DG G,CEG|(3 G,B,D (3 GBd gdBG|Ec ~c2 AGFA|G2 GF G2:|

